Simply-Black-Circles/scalable/apps/thermal-monitor.svg

<svg xmlns="http://www.w3.org/2000/svg" width="48" height="48" viewBox="0 0 12.7 12.7"><path d="M6.34.07a6.29 6.29 0 0 0-6.29 6.3 6.29 6.29 0 0 0 6.3 6.28 6.29 6.29 0 0 0 6.28-6.29A6.29 6.29 0 0 0 6.34.07zM6.32 1l.01.01a5.4 5.4 0 0 1 5.4 5.4 5.4 5.4 0 0 1-5.4 5.41 5.4 5.4 0 0 1-5.41-5.4A5.4 5.4 0 0 1 6.32 1zM3.2 2.65v.42a.37.37 0 0 0-.14.13h-.41v.37h.37v.37h-.37v.37h.37v.37h-.37v.37h.37v.37h-.37v.37h.37v.37h-.37v.38h.37v.37h-.37v.37h.37v.37h-.37v.37h.37v.37h-.37v.37h.37v.37h-.37v.37h.41c.03.05.08.1.14.13v.42h.37v-.37h.37v.37h.37v-.37h.37v.37h.37v-.37h.37v.37h.37v-.37h.37v.37h.38v-.37h.37v.37h.37v-.37h.37v.37h.37v-.37h.37v.37h.37v-.37h.37v.37h.37v-.42c.06-.03.1-.08.14-.13h.41v-.37h-.37v-.37h.37v-.37h-.37v-.37h.37v-.37h-.37v-.37h.37V6.9h-.37v-.37h.37v-.38h-.37V5.8h.37v-.37h-.37v-.37h.37v-.37h-.37v-.37h.37v-.37h-.37v-.37h.37V3.2h-.41a.37.37 0 0 0-.14-.13v-.42h-.37v.37h-.37v-.37h-.37v.37h-.37v-.37h-.37v.37h-.37v-.37H6.9v.37h-.37v-.37h-.38v.37H5.8v-.37h-.37v.37h-.37v-.37h-.37v.37h-.37v-.37h-.37v.37h-.37v-.37H3.2zm.56.74h5.18c.2 0 .37.13.37.3v5.33c0 .16-.16.3-.37.3H3.76c-.2 0-.37-.14-.37-.3V3.68c0-.16.16-.3.37-.3zm2.59.5a.82.82 0 0 0-.82.82v1.95a1.23 1.23 0 1 0 1.64 0V4.71a.82.82 0 0 0-.82-.82z" fill="#1a1a1a"/><path d="M6.15 5.53h.4V7a.62.62 0 0 1 .42.58.62.62 0 0 1-.62.61.62.62 0 0 1-.61-.61.62.62 0 0 1 .4-.58z"/><path d="M6.15 5.53V7a.62.62 0 0 0-.41.58.62.62 0 0 0 .61.61.62.62 0 0 0 .62-.61.62.62 0 0 0-.42-.58V5.53z" opacity=".75" fill="#ff2a2a"/></svg>

<?xml version="1.0" encoding="UTF-8" standalone="no"?>
<svg
   xmlns:dc="http://purl.org/dc/elements/1.1/"
   xmlns:cc="http://creativecommons.org/ns#"
   xmlns:rdf="http://www.w3.org/1999/02/22-rdf-syntax-ns#"
   xmlns:svg="http://www.w3.org/2000/svg"
   xmlns="http://www.w3.org/2000/svg"
   xmlns:sodipodi="http://sodipodi.sourceforge.net/DTD/sodipodi-0.dtd"
   xmlns:inkscape="http://www.inkscape.org/namespaces/inkscape"
   width="48"
   height="48"
   viewBox="0 0 12.7 12.7"
   version="1.1"
   id="svg8"
   sodipodi:docname="thermal-monitor.svg"
   inkscape:version="0.92.4 (5da689c313, 2019-01-14)">
  <metadata
     id="metadata14">
    <rdf:RDF>
      <cc:Work
         rdf:about="">
        <dc:format>image/svg+xml</dc:format>
        <dc:type
           rdf:resource="http://purl.org/dc/dcmitype/StillImage" />
        <dc:title></dc:title>
      </cc:Work>
    </rdf:RDF>
  </metadata>
  <defs
     id="defs12" />
  <sodipodi:namedview
     pagecolor="#ffffff"
     bordercolor="#666666"
     borderopacity="1"
     objecttolerance="10"
     gridtolerance="10"
     guidetolerance="10"
     inkscape:pageopacity="0"
     inkscape:pageshadow="2"
     inkscape:window-width="1087"
     inkscape:window-height="480"
     id="namedview10"
     showgrid="false"
     inkscape:zoom="4.9166667"
     inkscape:cx="2.1355932"
     inkscape:cy="24"
     inkscape:window-x="0"
     inkscape:window-y="25"
     inkscape:window-maximized="0"
     inkscape:current-layer="svg8" />
  <path
     d="M 6.34,0.07 A 6.29,6.29 0 0 0 0.05,6.37 6.29,6.29 0 0 0 6.35,12.65 6.29,6.29 0 0 0 12.63,6.36 6.29,6.29 0 0 0 6.34,0.07 Z M 6.32,1 6.33,1.01 a 5.4,5.4 0 0 1 5.4,5.4 5.4,5.4 0 0 1 -5.4,5.41 A 5.4,5.4 0 0 1 0.92,6.42 5.4,5.4 0 0 1 6.32,1 Z M 3.2,2.65 V 3.07 A 0.37,0.37 0 0 0 3.06,3.2 H 2.65 V 3.57 H 3.02 V 3.94 H 2.65 V 4.31 H 3.02 V 4.68 H 2.65 V 5.05 H 3.02 V 5.42 H 2.65 V 5.79 H 3.02 V 6.16 H 2.65 V 6.54 H 3.02 V 6.91 H 2.65 V 7.28 H 3.02 V 7.65 H 2.65 V 8.02 H 3.02 V 8.39 H 2.65 V 8.76 H 3.02 V 9.13 H 2.65 V 9.5 H 3.06 C 3.09,9.55 3.14,9.6 3.2,9.63 v 0.42 H 3.57 V 9.68 h 0.37 v 0.37 H 4.31 V 9.68 h 0.37 v 0.37 H 5.05 V 9.68 h 0.37 v 0.37 H 5.79 V 9.68 h 0.37 v 0.37 H 6.54 V 9.68 h 0.37 v 0.37 H 7.28 V 9.68 h 0.37 v 0.37 H 8.02 V 9.68 h 0.37 v 0.37 H 8.76 V 9.68 h 0.37 v 0.37 H 9.5 V 9.63 C 9.56,9.6 9.6,9.55 9.64,9.5 h 0.41 V 9.13 H 9.68 V 8.76 h 0.37 V 8.39 H 9.68 V 8.02 h 0.37 V 7.65 H 9.68 V 7.28 h 0.37 V 6.9 H 9.68 V 6.53 h 0.37 V 6.15 H 9.68 V 5.8 h 0.37 V 5.43 H 9.68 V 5.06 h 0.37 V 4.69 H 9.68 V 4.32 h 0.37 V 3.95 H 9.68 V 3.58 h 0.37 V 3.2 H 9.64 A 0.37,0.37 0 0 0 9.5,3.07 V 2.65 H 9.13 V 3.02 H 8.76 V 2.65 H 8.39 V 3.02 H 8.02 V 2.65 H 7.65 V 3.02 H 7.28 V 2.65 H 6.9 V 3.02 H 6.53 V 2.65 H 6.15 V 3.02 H 5.8 V 2.65 H 5.43 V 3.02 H 5.06 V 2.65 H 4.69 V 3.02 H 4.32 V 2.65 H 3.95 V 3.02 H 3.58 V 2.65 Z m 0.56,0.74 h 5.18 c 0.2,0 0.37,0.13 0.37,0.3 v 5.33 c 0,0.16 -0.16,0.3 -0.37,0.3 H 3.76 C 3.56,9.32 3.39,9.18 3.39,9.02 V 3.68 c 0,-0.16 0.16,-0.3 0.37,-0.3 z m 2.59,0.5 A 0.82,0.82 0 0 0 5.53,4.71 v 1.95 a 1.23,1.23 0 1 0 1.64,0 V 4.71 A 0.82,0.82 0 0 0 6.35,3.89 Z"
     id="path2"
     inkscape:connector-curvature="0"
     style="fill:#1a1a1a" />
  <path
     d="m 6.15,5.53 h 0.4 V 7 A 0.62,0.62 0 0 1 6.97,7.58 0.62,0.62 0 0 1 6.35,8.19 0.62,0.62 0 0 1 5.74,7.58 0.62,0.62 0 0 1 6.14,7 Z"
     id="path4"
     inkscape:connector-curvature="0" />
  <path
     d="M 6.15,5.53 V 7 A 0.62,0.62 0 0 0 5.74,7.58 0.62,0.62 0 0 0 6.35,8.19 0.62,0.62 0 0 0 6.97,7.58 0.62,0.62 0 0 0 6.55,7 V 5.53 Z"
     id="path6"
     inkscape:connector-curvature="0"
     style="opacity:0.75;fill:#ff2a2a" />
</svg>
